static/favicon.svg

<svg clip-rule="evenodd" fill-rule="evenodd" viewBox="0 0 32 32" xmlns="http://www.w3.org/2000/svg"><g transform="matrix(1.304348 0 0 1.304348 -5.565217 -3.217391)"><path d="m6 11h20l-2 13h-16z" fill="#f4e6d0" fill-rule="nonzero" stroke="#8a5a3c"/><path d="m16 11v13" fill="none" stroke="#d4bda3"/><path d="m6 11 6-5h8l6 5" fill="#fff6e9" fill-rule="nonzero" stroke="#8a5a3c"/><path d="m12 6 4 5" fill="none" stroke="#d4bda3"/><path d="m20 6-4 5" fill="none" stroke="#d4bda3"/><path d="m10 16c0-3 12-3 12 0" fill="none" stroke="#6e6e6e"/></g><circle cx="7.478263" cy="17.652177" fill="#6e6e6e" r=".652174" stroke-width="1.304348"/><circle cx="23.130439" cy="17.652177" fill="#6e6e6e" r=".652174" stroke-width="1.304348"/><path d="m11 5 1-1 13 8-1 1z" fill="#b76e3a" fill-rule="nonzero" stroke="#8a5a3c" stroke-width=".5" transform="matrix(1.304348 0 0 1.304348 -5.565217 -3.217391)"/><path d="m13 5 1-1 13 8-1 1z" fill="#c98347" fill-rule="nonzero" stroke="#8a5a3c" stroke-width=".5" transform="matrix(1.304348 0 0 1.304348 -5.565217 -3.217391)"/><ellipse cx="15.304351" cy="30.043483" fill-opacity=".13" rx="10.434784" ry="1.956522" stroke-width="1.304348"/></svg>

<?xml version="1.0" encoding="UTF-8" standalone="no"?>
<!DOCTYPE svg PUBLIC "-//W3C//DTD SVG 1.1//EN" "http://www.w3.org/Graphics/SVG/1.1/DTD/svg11.dtd">
<svg width="100%" height="100%" viewBox="0 0 32 32" version="1.1" xmlns="http://www.w3.org/2000/svg" xmlns:xlink="http://www.w3.org/1999/xlink" xml:space="preserve" xmlns:serif="http://www.serif.com/" style="fill-rule:evenodd;clip-rule:evenodd;">
    <g transform="matrix(1.304348,0,0,1.304348,-5.565217,-3.217391)">
        <path d="M6,11L26,11L24,24L8,24L6,11Z" style="fill:rgb(244,230,208);fill-rule:nonzero;stroke:rgb(138,90,60);stroke-width:1px;"/>
    </g>
    <g transform="matrix(1.304348,0,0,1.304348,-5.565217,-3.217391)">
        <path d="M16,11L16,24" style="fill:none;fill-rule:nonzero;stroke:rgb(212,189,163);stroke-width:1px;"/>
    </g>
    <g transform="matrix(1.304348,0,0,1.304348,-5.565217,-3.217391)">
        <path d="M6,11L12,6L20,6L26,11" style="fill:rgb(255,246,233);fill-rule:nonzero;stroke:rgb(138,90,60);stroke-width:1px;"/>
    </g>
    <g transform="matrix(1.304348,0,0,1.304348,-5.565217,-3.217391)">
        <path d="M12,6L16,11" style="fill:none;fill-rule:nonzero;stroke:rgb(212,189,163);stroke-width:1px;"/>
    </g>
    <g transform="matrix(1.304348,0,0,1.304348,-5.565217,-3.217391)">
        <path d="M20,6L16,11" style="fill:none;fill-rule:nonzero;stroke:rgb(212,189,163);stroke-width:1px;"/>
    </g>
    <g transform="matrix(1.304348,0,0,1.304348,-5.565217,-3.217391)">
        <path d="M10,16C10,13 22,13 22,16" style="fill:none;fill-rule:nonzero;stroke:rgb(110,110,110);stroke-width:1px;"/>
    </g>
    <g transform="matrix(1.304348,0,0,1.304348,-5.565217,-3.217391)">
        <circle cx="10" cy="16" r="0.5" style="fill:rgb(110,110,110);"/>
    </g>
    <g transform="matrix(1.304348,0,0,1.304348,-5.565217,-3.217391)">
        <circle cx="22" cy="16" r="0.5" style="fill:rgb(110,110,110);"/>
    </g>
    <g transform="matrix(1.304348,0,0,1.304348,-5.565217,-3.217391)">
        <path d="M11,5L12,4L25,12L24,13L11,5Z" style="fill:rgb(183,110,58);fill-rule:nonzero;stroke:rgb(138,90,60);stroke-width:0.5px;"/>
    </g>
    <g transform="matrix(1.304348,0,0,1.304348,-5.565217,-3.217391)">
        <path d="M13,5L14,4L27,12L26,13L13,5Z" style="fill:rgb(201,131,71);fill-rule:nonzero;stroke:rgb(138,90,60);stroke-width:0.5px;"/>
    </g>
    <g transform="matrix(1.304348,0,0,1.304348,-5.565217,-3.217391)">
        <ellipse cx="16" cy="25.5" rx="8" ry="1.5" style="fill-opacity:0.13;"/>
    </g>
</svg>
